X:331
T:Spirit of the Dance
R:jig 32
M:6/8
L:1/8
Q:1/4=120
K:D
|:d2A B2A|d2A B2A|def gfg|efd cBA|
d2A B2A|d2A B2A|def gab|gec d3:|
|:Adf g3|f3 e3|efg a2b|g2a f3|
def g3|f3 e3|efg f2g|f2e d3:|]

